assets/dude/Design–Willie.svg

<svg width="505" height="110" viewBox="0 0 505 110" fill="none" xmlns="http://www.w3.org/2000/svg">
<path d="M57.6334 4.45993C56.7934 4.45993 55.9534 9.49994 55.1134 9.49994C54.2734 9.49994 53.5734 4.31994 52.5934 3.19993C51.6134 2.07993 45.5934 0.679932 38.0334 0.679932C30.4734 0.679932 25.2934 2.07993 24.3134 3.19993C23.3334 4.31994 22.6334 9.49994 21.7934 9.49994C20.9534 9.49994 20.1134 4.45993 19.2734 4.45993C15.4934 4.45993 1.7734 8.93993 1.0734 9.35993C0.373398 9.77993 0.233398 10.0599 0.233398 10.7599C0.233398 11.4599 2.7534 20.8399 2.7534 39.7399C2.7534 40.4399 3.3134 40.9999 4.0134 40.9999H17.8734C18.5734 40.9999 19.1334 41.5599 19.1334 42.2599V67.4599C19.1334 68.1599 18.5734 68.7199 17.8734 68.7199H4.0134C3.3134 68.7199 2.7534 69.2799 2.7534 69.9799C2.7534 88.8799 0.233398 98.2599 0.233398 98.9599C0.233398 99.6599 0.373398 99.9399 1.0734 100.36C1.7734 100.78 15.4934 105.26 19.2734 105.26C20.1134 105.26 20.9534 100.22 21.7934 100.22C22.6334 100.22 23.3334 105.4 24.3134 106.52C25.2934 107.64 30.4734 109.04 38.0334 109.04C45.5934 109.04 51.6134 107.64 52.5934 106.52C53.5734 105.4 54.2734 100.22 55.1134 100.22C55.9534 100.22 56.7934 105.26 57.6334 105.26C69.9534 105.26 86.6134 94.3399 86.6134 74.5999V35.9599C86.6134 15.2399 70.0934 4.45993 57.6334 4.45993ZM29.2134 67.4599V42.2599C29.2134 41.5599 29.7734 40.9999 30.4734 40.9999H67.7134C72.6134 40.9999 76.5334 44.9199 76.5334 49.8199V59.8999C76.5334 64.7999 72.6134 68.7199 67.7134 68.7199H30.4734C29.7734 68.7199 29.2134 68.1599 29.2134 67.4599Z" fill="#FF1C31"/>
<path d="M178.199 62.8399C178.199 62.1399 177.639 61.5799 176.939 61.5799H169.659C168.959 61.5799 168.399 62.1399 168.399 62.8399C168.399 66.3399 165.599 68.7199 162.099 68.7199H122.759C122.059 68.7199 121.499 68.1599 121.499 67.4599V59.8999C121.499 59.1999 122.059 58.6399 122.759 58.6399H134.519C135.219 58.6399 135.779 59.1999 135.779 59.8999V61.1599C135.779 61.8599 136.339 62.4199 137.039 62.4199H155.939C156.639 62.4199 157.199 61.8599 157.199 61.1599V48.5599C157.199 47.8599 156.639 47.2999 155.939 47.2999H137.039C136.339 47.2999 135.779 47.8599 135.779 48.5599V49.8199C135.779 50.5199 135.219 51.0799 134.519 51.0799H122.759C122.059 51.0799 121.499 50.5199 121.499 49.8199V42.2599C121.499 41.5599 122.059 40.9999 122.759 40.9999H162.099C165.599 40.9999 168.399 43.3799 168.399 46.8799C168.399 47.5799 168.959 48.1399 169.659 48.1399H176.939C177.639 48.1399 178.199 47.5799 178.199 46.8799V39.7399C178.199 20.8399 180.719 11.4599 180.719 10.7599C180.719 10.0599 180.579 9.77993 179.879 9.35993C179.179 8.93993 163.079 4.45993 159.299 4.45993C158.459 4.45993 157.619 9.49994 156.779 9.49994C155.939 9.49994 155.239 4.31994 154.259 3.19993C153.279 2.07993 144.179 0.679932 136.619 0.679932C129.059 0.679932 119.959 2.07993 118.979 3.19993C117.999 4.31994 117.299 9.49994 116.459 9.49994C115.619 9.49994 114.779 4.45993 113.939 4.45993C110.159 4.45993 94.0586 8.93993 93.3586 9.35993C92.6586 9.77993 92.5186 10.0599 92.5186 10.7599C92.5186 11.4599 95.0386 20.8399 95.0386 39.7399C95.0386 40.4399 95.5986 40.9999 96.2986 40.9999H110.159C110.859 40.9999 111.419 41.5599 111.419 42.2599V67.4599C111.419 68.1599 110.859 68.7199 110.159 68.7199H96.2986C95.5986 68.7199 95.0386 69.2799 95.0386 69.9799C95.0386 88.8799 92.5186 98.2599 92.5186 98.9599C92.5186 99.6599 92.6586 99.9399 93.3586 100.36C94.0586 100.78 110.159 105.26 113.939 105.26C114.779 105.26 115.619 100.22 116.459 100.22C117.299 100.22 117.999 105.4 118.979 106.52C119.959 107.64 129.059 109.04 136.619 109.04C144.179 109.04 153.279 107.64 154.259 106.52C155.239 105.4 155.939 100.22 156.779 100.22C157.619 100.22 158.459 105.26 159.299 105.26C163.079 105.26 179.179 100.78 179.879 100.36C180.579 99.9399 180.719 99.6599 180.719 98.9599C180.719 98.2599 178.199 88.8799 178.199 69.9799V62.8399Z" fill="#FF1C31"/>
<path d="M207.014 44.7799C207.014 42.6799 209.114 40.9999 211.214 40.9999H243.974C247.474 40.9999 250.274 43.3799 250.274 46.8799C250.274 47.5799 250.834 48.1399 251.534 48.1399H258.814C259.514 48.1399 260.074 47.5799 260.074 46.8799V33.2999C260.074 18.0399 247.334 5.71993 231.934 5.71993H226.334C225.494 5.71993 224.654 10.7599 223.814 10.7599C222.974 10.7599 222.134 5.71993 221.294 5.71993H216.254C200.854 5.71993 188.394 18.0399 188.114 33.4399V37.2199C188.114 71.2399 244.674 49.8199 244.674 64.9399C244.674 67.0399 242.994 68.7199 240.894 68.7199H202.954C199.454 68.7199 196.654 66.3399 196.654 62.8399C196.654 62.1399 196.094 61.5799 195.394 61.5799H188.114C187.414 61.5799 186.854 62.1399 186.854 62.8399V76.2799C186.854 91.5399 199.594 104 214.994 104H223.254C224.094 104 224.934 98.9599 225.774 98.9599C226.614 98.9599 227.454 104 228.294 104H235.434C250.834 104 263.574 91.6799 263.574 76.2799V72.4999C263.574 38.4799 207.014 59.8999 207.014 44.7799Z" fill="#FF1C31"/>
<path d="M312.576 68.7199H298.716C298.016 68.7199 297.456 68.1599 297.456 67.4599V42.2599C297.456 41.5599 298.016 40.9999 298.716 40.9999H312.576C313.276 40.9999 313.836 40.4399 313.836 39.7399C313.836 20.8399 316.356 11.4599 316.356 10.7599C316.356 10.0599 316.216 9.77993 315.516 9.35993C314.816 8.93993 298.716 4.45993 294.936 4.45993C294.096 4.45993 293.256 9.49994 292.416 9.49994C291.576 9.49994 290.736 4.45993 289.896 4.45993C286.116 4.45993 270.016 8.93993 269.316 9.35993C268.616 9.77993 268.476 10.0599 268.476 10.7599C268.476 11.4599 270.996 20.8399 270.996 39.7399C270.996 40.4399 271.556 40.9999 272.256 40.9999H286.116C286.816 40.9999 287.376 41.5599 287.376 42.2599V67.4599C287.376 68.1599 286.816 68.7199 286.116 68.7199H272.256C271.556 68.7199 270.996 69.2799 270.996 69.9799C270.996 88.8799 268.476 98.2599 268.476 98.9599C268.476 99.6599 268.616 99.9399 269.316 100.36C270.016 100.78 286.116 105.26 289.896 105.26C290.736 105.26 291.576 100.22 292.416 100.22C293.256 100.22 294.096 105.26 294.936 105.26C298.716 105.26 314.816 100.78 315.516 100.36C316.216 99.9399 316.356 99.6599 316.356 98.9599C316.356 98.2599 313.836 88.8799 313.836 69.9799C313.836 69.2799 313.276 68.7199 312.576 68.7199Z" fill="#FF1C31"/>
<path d="M395.146 53.3199C395.146 52.6199 394.586 52.0599 393.886 52.0599H369.946C369.246 52.0599 368.686 52.6199 368.686 53.3199V58.3599C368.686 59.0599 369.246 59.6199 369.946 59.6199H383.806C384.506 59.6199 385.066 60.1799 385.066 60.8799V63.1199C385.066 66.6199 382.266 68.9999 378.766 68.9999H342.646C336.486 68.9999 331.446 63.9599 331.446 57.7999V51.9199C331.446 45.7599 336.486 40.7199 342.646 40.7199H379.046C382.546 40.7199 385.346 43.0999 385.346 46.5999C385.346 47.2999 385.906 47.8599 386.606 47.8599H393.886C394.586 47.8599 395.146 47.2999 395.146 46.5999V42.1199C395.146 23.2199 397.666 13.9799 397.666 13.2799C397.666 12.5799 397.526 12.2999 396.826 11.8799C396.126 11.4599 381.846 6.97993 378.066 6.97993C377.226 6.97993 376.386 11.8799 375.546 11.8799C374.706 11.8799 373.866 6.97993 373.026 6.41993C371.766 5.57994 365.186 4.03993 359.586 4.03993H352.446C335.786 4.03993 322.206 18.0399 322.206 34.6999V75.4399C322.206 92.0999 335.786 105.68 352.446 105.68H359.586C365.186 105.68 371.766 104.14 373.026 103.3C373.866 102.74 374.706 97.8399 375.546 97.8399C376.386 97.8399 377.226 102.74 378.066 102.74C381.846 102.74 396.126 98.2599 396.826 97.8399C397.526 97.4199 397.666 97.1399 397.666 96.4399C397.666 95.7399 395.146 86.4999 395.146 67.5999V53.3199Z" fill="#FF1C31"/>
<path d="M503.514 9.35993C502.814 8.93993 486.714 4.45993 482.934 4.45993C482.094 4.45993 481.254 9.49994 480.414 9.49994C479.574 9.49994 478.734 4.45993 477.894 4.45993C474.114 4.45993 458.014 8.93993 457.314 9.35993C456.614 9.77993 456.474 10.0599 456.474 10.7599C456.474 11.4599 458.994 20.8399 458.994 39.7399C458.994 40.4399 459.554 40.9999 460.254 40.9999H474.114C474.814 40.9999 475.374 41.5599 475.374 42.2599V67.4599C475.374 68.1599 474.814 68.7199 474.114 68.7199H466.274C465.154 68.7199 464.594 68.1599 464.594 68.1599L446.674 42.9599C446.674 42.9599 446.114 42.1199 446.114 41.5599C446.114 41.2799 446.254 40.9999 446.954 40.9999H447.654C448.354 40.9999 448.914 40.4399 448.914 39.7399C448.914 20.8399 451.434 11.4599 451.434 10.7599C451.434 10.0599 451.294 9.77993 450.594 9.35993C449.894 8.93993 433.794 4.45993 430.014 4.45993C429.174 4.45993 428.334 9.49994 427.494 9.49994C426.654 9.49994 425.814 4.45993 424.974 4.45993C421.194 4.45993 405.094 8.93993 404.394 9.35993C403.694 9.77993 403.554 10.0599 403.554 10.7599C403.554 11.4599 406.074 20.8399 406.074 39.7399C406.074 40.4399 406.634 40.9999 407.334 40.9999H421.194C421.894 40.9999 422.454 41.5599 422.454 42.2599V67.4599C422.454 68.1599 421.894 68.7199 421.194 68.7199H407.334C406.634 68.7199 406.074 69.2799 406.074 69.9799C406.074 88.8799 403.554 98.2599 403.554 98.9599C403.554 99.6599 403.694 99.9399 404.394 100.36C405.094 100.78 421.194 105.26 424.974 105.26C425.814 105.26 426.654 100.22 427.494 100.22C428.334 100.22 429.174 105.26 430.014 105.26C433.794 105.26 449.894 100.78 450.594 100.36C451.294 99.9399 451.434 99.6599 451.434 98.9599C451.434 98.2599 448.914 88.8799 448.914 69.9799C448.914 69.2799 448.354 68.7199 447.654 68.7199H433.794C433.094 68.7199 432.534 68.1599 432.534 67.4599V43.0999C432.534 42.5399 432.814 42.2599 433.094 42.2599C433.794 42.2599 434.494 43.3799 434.494 43.3799L476.354 101.9C477.194 103.16 478.734 104 480.414 104C483.214 104 485.454 101.76 485.454 98.9599V42.2599C485.454 41.5599 486.014 40.9999 486.714 40.9999H500.574C501.274 40.9999 501.834 40.4399 501.834 39.7399C501.834 20.8399 504.354 11.4599 504.354 10.7599C504.354 10.0599 504.214 9.77993 503.514 9.35993Z" fill="#FF1C31"/>
</svg>

<svg xmlns="http://www.w3.org/2000/svg" fill="none" viewBox="0 0 505 110"><path fill="#FF1C31" d="M57.633 4.46c-.84 0-1.68 5.04-2.52 5.04-.84 0-1.54-5.18-2.52-6.3s-7-2.52-14.56-2.52c-7.56 0-12.74 1.4-13.72 2.52-.98 1.12-1.68 6.3-2.52 6.3-.84 0-1.68-5.04-2.52-5.04-3.78 0-17.5 4.48-18.2 4.9-.7.42-.84.7-.84 1.4s2.52 10.08 2.52 28.98c0 .7.56 1.26 1.26 1.26h13.86c.7 0 1.26.56 1.26 1.26v25.2c0 .7-.56 1.26-1.26 1.26H4.013c-.7 0-1.26.56-1.26 1.26 0 18.9-2.52 28.28-2.52 28.98 0 .7.14.98.84 1.4.7.42 14.42 4.9 18.2 4.9.84 0 1.68-5.04 2.52-5.04.84 0 1.54 5.18 2.52 6.3s6.16 2.52 13.72 2.52c7.56 0 13.58-1.4 14.56-2.52.98-1.12 1.68-6.3 2.52-6.3.84 0 1.68 5.04 2.52 5.04 12.32 0 28.98-10.92 28.98-30.66V35.96c0-20.72-16.52-31.5-28.98-31.5zm-28.42 63v-25.2c0-.7.56-1.26 1.26-1.26h37.24c4.9 0 8.82 3.92 8.82 8.82V59.9c0 4.9-3.92 8.82-8.82 8.82h-37.24c-.7 0-1.26-.56-1.26-1.26zM178.199 62.84c0-.7-.56-1.26-1.26-1.26h-7.28c-.7 0-1.26.56-1.26 1.26 0 3.5-2.8 5.88-6.3 5.88h-39.34c-.7 0-1.26-.56-1.26-1.26V59.9c0-.7.56-1.26 1.26-1.26h11.76c.7 0 1.26.56 1.26 1.26v1.26c0 .7.56 1.26 1.26 1.26h18.9c.7 0 1.26-.56 1.26-1.26v-12.6c0-.7-.56-1.26-1.26-1.26h-18.9c-.7 0-1.26.56-1.26 1.26v1.26c0 .7-.56 1.26-1.26 1.26h-11.76c-.7 0-1.26-.56-1.26-1.26v-7.56c0-.7.56-1.26 1.26-1.26h39.34c3.5 0 6.3 2.38 6.3 5.88 0 .7.56 1.26 1.26 1.26h7.28c.7 0 1.26-.56 1.26-1.26v-7.14c0-18.9 2.52-28.28 2.52-28.98 0-.7-.14-.98-.84-1.4-.7-.42-16.8-4.9-20.58-4.9-.84 0-1.68 5.04-2.52 5.04-.84 0-1.54-5.18-2.52-6.3S144.179.68 136.619.68c-7.56 0-16.66 1.4-17.64 2.52-.98 1.12-1.68 6.3-2.52 6.3-.84 0-1.68-5.04-2.52-5.04-3.78 0-19.88 4.48-20.58 4.9-.7.42-.84.7-.84 1.4s2.52 10.08 2.52 28.98c0 .7.56 1.26 1.26 1.26h13.86c.7 0 1.26.56 1.26 1.26v25.2c0 .7-.56 1.26-1.26 1.26h-13.86c-.7 0-1.26.56-1.26 1.26 0 18.9-2.52 28.28-2.52 28.98 0 .7.14.98.84 1.4.7.42 16.8 4.9 20.58 4.9.84 0 1.68-5.04 2.52-5.04.84 0 1.54 5.18 2.52 6.3s10.08 2.52 17.64 2.52c7.56 0 16.66-1.4 17.64-2.52.98-1.12 1.68-6.3 2.52-6.3.84 0 1.68 5.04 2.52 5.04 3.78 0 19.88-4.48 20.58-4.9.7-.42.84-.7.84-1.4s-2.52-10.08-2.52-28.98v-7.14zM207.014 44.78c0-2.1 2.1-3.78 4.2-3.78h32.76c3.5 0 6.3 2.38 6.3 5.88 0 .7.56 1.26 1.26 1.26h7.28c.7 0 1.26-.56 1.26-1.26V33.3c0-15.26-12.74-27.58-28.14-27.58h-5.6c-.84 0-1.68 5.04-2.52 5.04-.84 0-1.68-5.04-2.52-5.04h-5.04c-15.4 0-27.86 12.32-28.14 27.72v3.78c0 34.02 56.56 12.6 56.56 27.72 0 2.1-1.68 3.78-3.78 3.78h-37.94c-3.5 0-6.3-2.38-6.3-5.88 0-.7-.56-1.26-1.26-1.26h-7.28c-.7 0-1.26.56-1.26 1.26v13.44c0 15.26 12.74 27.72 28.14 27.72h8.26c.84 0 1.68-5.04 2.52-5.04.84 0 1.68 5.04 2.52 5.04h7.14c15.4 0 28.14-12.32 28.14-27.72V72.5c0-34.02-56.56-12.6-56.56-27.72zM312.576 68.72h-13.86c-.7 0-1.26-.56-1.26-1.26v-25.2c0-.7.56-1.26 1.26-1.26h13.86c.7 0 1.26-.56 1.26-1.26 0-18.9 2.52-28.28 2.52-28.98 0-.7-.14-.98-.84-1.4-.7-.42-16.8-4.9-20.58-4.9-.84 0-1.68 5.04-2.52 5.04-.84 0-1.68-5.04-2.52-5.04-3.78 0-19.88 4.48-20.58 4.9-.7.42-.84.7-.84 1.4s2.52 10.08 2.52 28.98c0 .7.56 1.26 1.26 1.26h13.86c.7 0 1.26.56 1.26 1.26v25.2c0 .7-.56 1.26-1.26 1.26h-13.86c-.7 0-1.26.56-1.26 1.26 0 18.9-2.52 28.28-2.52 28.98 0 .7.14.98.84 1.4.7.42 16.8 4.9 20.58 4.9.84 0 1.68-5.04 2.52-5.04.84 0 1.68 5.04 2.52 5.04 3.78 0 19.88-4.48 20.58-4.9.7-.42.84-.7.84-1.4s-2.52-10.08-2.52-28.98c0-.7-.56-1.26-1.26-1.26zM395.146 53.32c0-.7-.56-1.26-1.26-1.26h-23.94c-.7 0-1.26.56-1.26 1.26v5.04c0 .7.56 1.26 1.26 1.26h13.86c.7 0 1.26.56 1.26 1.26v2.24c0 3.5-2.8 5.88-6.3 5.88h-36.12c-6.16 0-11.2-5.04-11.2-11.2v-5.88c0-6.16 5.04-11.2 11.2-11.2h36.4c3.5 0 6.3 2.38 6.3 5.88 0 .7.56 1.26 1.26 1.26h7.28c.7 0 1.26-.56 1.26-1.26v-4.48c0-18.9 2.52-28.14 2.52-28.84 0-.7-.14-.98-.84-1.4-.7-.42-14.98-4.9-18.76-4.9-.84 0-1.68 4.9-2.52 4.9-.84 0-1.68-4.9-2.52-5.46-1.26-.84-7.84-2.38-13.44-2.38h-7.14c-16.66 0-30.24 14-30.24 30.66v40.74c0 16.66 13.58 30.24 30.24 30.24h7.14c5.6 0 12.18-1.54 13.44-2.38.84-.56 1.68-5.46 2.52-5.46.84 0 1.68 4.9 2.52 4.9 3.78 0 18.06-4.48 18.76-4.9.7-.42.84-.7.84-1.4s-2.52-9.94-2.52-28.84V53.32zM503.514 9.36c-.7-.42-16.8-4.9-20.58-4.9-.84 0-1.68 5.04-2.52 5.04-.84 0-1.68-5.04-2.52-5.04-3.78 0-19.88 4.48-20.58 4.9-.7.42-.84.7-.84 1.4s2.52 10.08 2.52 28.98c0 .7.56 1.26 1.26 1.26h13.86c.7 0 1.26.56 1.26 1.26v25.2c0 .7-.56 1.26-1.26 1.26h-7.84c-1.12 0-1.68-.56-1.68-.56l-17.92-25.2s-.56-.84-.56-1.4c0-.28.14-.56.84-.56h.7c.7 0 1.26-.56 1.26-1.26 0-18.9 2.52-28.28 2.52-28.98 0-.7-.14-.98-.84-1.4-.7-.42-16.8-4.9-20.58-4.9-.84 0-1.68 5.04-2.52 5.04-.84 0-1.68-5.04-2.52-5.04-3.78 0-19.88 4.48-20.58 4.9-.7.42-.84.7-.84 1.4s2.52 10.08 2.52 28.98c0 .7.56 1.26 1.26 1.26h13.86c.7 0 1.26.56 1.26 1.26v25.2c0 .7-.56 1.26-1.26 1.26h-13.86c-.7 0-1.26.56-1.26 1.26 0 18.9-2.52 28.28-2.52 28.98 0 .7.14.98.84 1.4.7.42 16.8 4.9 20.58 4.9.84 0 1.68-5.04 2.52-5.04.84 0 1.68 5.04 2.52 5.04 3.78 0 19.88-4.48 20.58-4.9.7-.42.84-.7.84-1.4s-2.52-10.08-2.52-28.98c0-.7-.56-1.26-1.26-1.26h-13.86c-.7 0-1.26-.56-1.26-1.26V43.1c0-.56.28-.84.56-.84.7 0 1.4 1.12 1.4 1.12l41.86 58.52c.84 1.26 2.38 2.1 4.06 2.1 2.8 0 5.04-2.24 5.04-5.04v-56.7c0-.7.56-1.26 1.26-1.26h13.86c.7 0 1.26-.56 1.26-1.26 0-18.9 2.52-28.28 2.52-28.98 0-.7-.14-.98-.84-1.4z"/></svg>
